!!! OTL: Berkowitz464
!!! Chapter: 1
!!! Section: IV
!!! Page: 115
!!! Mode: 
!!! Encoder: DJB
**kern
*staff1
*I"Piano
=1-
*clefG2
*k[b-]
*F:
*M4/4
4r
4r
8r
8c/
8.d/L
16f/Jk
=2
8.g#/L
16a/Jk
4r
8r
8c/
8.d/L
16f/Jk
=3
8.g#/L
16a/Jk
[4dd\
4dd\]
8.cc\L
16a\Jk
=4
8.b-/L
16c/Jk
4r
4r
8.cc\L
16a\Jk
=5
8.b-/L
16c/Jk
4r
8r
8d#/
8.e/L
16g/Jk
=6
!!linebreak:original
4dd\
8.cc\L
16a\Jk
4b-\
8.a/L
16f#/Jk
=7
4g/
8.f/L
16d#/Jk
8.e/L
16cc/Jk
8.c/L
16d#/Jk
=8
8.a/L
16f/Jk
4r
4r
8.b-/L
16g#/Jk
=9
8.a/L
16f/Jk
4r
8r
8f/
8.e/L
16f/Jk
=10
2.dd\
8.ee\L
16ff\Jk
=11
8.cc\L
16a\Jk
4r
8r
8f/
8.e/L
16f/Jk
=12
!!linebreak:original
4.b-\
8b-\
4cc\
4b-\
=13
8.a/L
16f/Jk
4r
8r
8f/
8.e/L
16e-/Jk
=14
4d/
8.f#/L
16a/Jk
8.cc\L
16ee-\Jk
8.dd\L
16cc\Jk
=15
4b-\
4a/
4g/
8.f/L
16d/Jk
=16
8.e/L
16cc/Jk
4r
8r
8c/
8.B-/L
16c/Jk
=17
4b-\
8r
8c/
8.Bn/L
16c/Jk
4a/
=18
!!linebreak:original
8r
8c/
8.Bn/L
16c/Jk
4g/
8r
8e/
=19
4f/
4ff\
4r
8.b-/L
16g#/Jk
=20
8.a/L
16f/Jk
4r
2r
==
*-
